svgs/sharp-light/sim-cards.svg

<svg xmlns="http://www.w3.org/2000/svg" viewBox="0 0 448 512"><!--! Font Awesome Pro 6.6.0 by @fontawesome - https://fontawesome.com License - https://fontawesome.com/license (Commercial License) Copyright 2024 Fonticons, Inc. --><path d="M112 400l304 0 0-258.7L306.7 32 112 32l0 368zM448 128l0 272 0 32-32 0-304 0-32 0 0-32L80 32 80 0l32 0L320 0 448 128zM32 96l0 16 0 368 336 0 16 0 0 32-16 0L16 512 0 512l0-16L0 112 0 96l32 0zm128 48l80 0 56 0 72 0 16 0 0 16 0 64 0 64 0 64 0 16-16 0-96 0-40 0-72 0-16 0 0-16 0-64 0-64 0-64 0-16 16 0zm16 64l48 0 0-32-48 0 0 32zm80 0l40 0 56 0 0-32-56 0-40 0 0 32zm40 32l-56 0-64 0 0 32 56 0 40 0 80 0 0-32-56 0zm-8 96l64 0 0-32-64 0 0 32zm-32-32l-24 0-56 0 0 32 56 0 24 0 0-32z"/></svg>

<svg xmlns="http://www.w3.org/2000/svg" viewBox="0 0 448 512"><!--! Font Awesome Pro 6.5.2 by @fontawesome - https://fontawesome.com License - https://fontawesome.com/license (Commercial License) Copyright 2024 Fonticons, Inc. --><path d="M112 400H416V141.3L306.7 32H112V400zM448 128V400v32H416 112 80V400 32 0h32H320L448 128zM32 96v16V480H368h16v32H368 16 0V496 112 96H32zm128 48h80 56 72 16v16 64 64 64 16H368 272 232 160 144V352 288 224 160 144h16zm16 64h48V176H176v32zm80 0h40 56V176H296 256v32zm40 32H240 176v32h56 40 80V240H296zm-8 96h64V304H288v32zm-32-32H232 176v32h56 24V304z"/></svg>
